X: 12743
T: Father Michael MacDonald's Silver Jubilee
R: reel
M: 4/4
K: Dmixolydian
|:A~D3 E2DC|Dddc AGAB|c~C3 G2EG|AcBd cAGE|
A~D3 E2DC|Dddc dcAG|AcBd cAGC|1 E2D2 D2cB:|2 E2D2 D3||
|:G|E2D2 D2E/F/G|AGAc dcAc|G2E2 E2DE|EGAc AGcC|
E2D2 D2EG|AGEG A2Bc|AcBd cAGC|E2D2 D3:|

